src/_includes/svg/blue.svg

<svg width="271" height="276" viewBox="0 0 271 276" fill="none" xmlns="http://www.w3.org/2000/svg">
<mask id="mask0_270_337" style="mask-type:alpha" maskUnits="userSpaceOnUse" x="0" y="0" width="271" height="276">
<path d="M0 10C0 4.47715 4.47715 0 10 0H261C266.523 0 271 4.47715 271 10V266C271 271.523 266.523 276 261 276H9.99999C4.47714 276 0 271.523 0 266V10Z" fill="#ABDDE9"/>
</mask>
<g mask="url(#mask0_270_337)">
<path d="M-101.813 286.459L-37.0561 377.684L244.13 178.041L189.361 100.931C183.828 93.1507 173.019 91.3005 165.239 96.8332L-101.813 286.459Z" fill="#198293"/>
<path d="M-105.586 269.844L42.541 407.002L235.389 198.731L87.262 61.5724L-105.586 269.844Z" fill="#ABDDE9"/>
<path d="M109.154 120.319L107.768 121.815L173.923 183.072L175.309 181.576L109.154 120.319Z" fill="#55769F"/>
<path d="M98.7154 103.679L97.3297 105.175L191.274 192.162L192.659 190.666L98.7154 103.679Z" fill="#55769F"/>
<path d="M70.7839 113.774L69.3982 115.271L183.364 220.797L184.75 219.301L70.7839 113.774Z" fill="#55769F"/>
<path d="M64.1618 120.9L62.7761 122.396L176.742 227.923L178.128 226.427L64.1618 120.9Z" fill="#55769F"/>
<path d="M50.9449 135.212L49.5592 136.709L163.525 242.236L164.911 240.739L50.9449 135.212Z" fill="#55769F"/>
<path d="M44.3237 142.333L42.938 143.829L156.904 249.356L158.29 247.859L44.3237 142.333Z" fill="#55769F"/>
<path d="M37.7292 149.479L36.3435 150.976L150.309 256.503L151.695 255.006L37.7292 149.479Z" fill="#55769F"/>
<path d="M8.62897 180.91L7.24329 182.406L121.209 287.933L122.595 286.437L8.62897 180.91Z" fill="#55769F"/>
<path d="M1.75641 188.295L0.370728 189.792L114.337 295.318L115.722 293.822L1.75641 188.295Z" fill="#55769F"/>
<path d="M-5.08819 195.717L-6.47388 197.213L107.492 302.74L108.878 301.244L-5.08819 195.717Z" fill="#55769F"/>
<path d="M-11.9363 203.129L-13.322 204.625L100.644 310.152L102.03 308.656L-11.9363 203.129Z" fill="#55769F"/>
<path d="M-18.8099 210.517L-20.1956 212.013L93.7704 317.54L95.1561 316.043L-18.8099 210.517Z" fill="#55769F"/>
<path d="M-25.6577 217.922L-27.0433 219.419L86.9226 324.946L88.3083 323.449L-25.6577 217.922Z" fill="#55769F"/>
<path d="M-32.5043 225.338L-33.89 226.835L80.076 332.362L81.4616 330.865L-32.5043 225.338Z" fill="#55769F"/>
<path d="M-94.1925 262.975L42.2389 411.79L251.477 219.964L115.046 71.1483L-94.1925 262.975Z" fill="#6AB9C6"/>
<path d="M130.597 132.835L191.529 199.298L193.033 197.92L132.101 131.457L130.597 132.835Z" fill="#ABDDE9"/>
<path d="M121.599 115.421L208.125 209.801L209.628 208.423L123.102 114.043L121.599 115.421Z" fill="#ABDDE9"/>
<path d="M92.9447 123.181L197.912 237.677L199.415 236.298L94.4481 121.803L92.9447 123.181Z" fill="#ABDDE9"/>
<path d="M85.765 129.741L190.732 244.237L192.236 242.858L87.2684 128.363L85.765 129.741Z" fill="#ABDDE9"/>
<path d="M71.4034 142.912L176.371 257.407L177.874 256.029L72.9069 141.534L71.4034 142.912Z" fill="#ABDDE9"/>
<path d="M64.2516 149.494L169.219 263.99L170.722 262.611L65.755 148.116L64.2516 149.494Z" fill="#ABDDE9"/>
<path d="M57.0482 156.077L162.016 270.572L163.519 269.194L58.5516 154.699L57.0482 156.077Z" fill="#ABDDE9"/>
<path d="M25.4996 185.003L130.467 299.498L131.97 298.12L27.003 183.625L25.4996 185.003Z" fill="#ABDDE9"/>
<path d="M18.045 191.836L123.012 306.331L124.516 304.953L19.5484 190.458L18.045 191.836Z" fill="#ABDDE9"/>
<path d="M10.614 198.646L115.581 313.141L117.085 311.763L12.1174 197.268L10.614 198.646Z" fill="#ABDDE9"/>
<path d="M3.17857 205.46L108.146 319.955L109.649 318.577L4.68202 204.081L3.17857 205.46Z" fill="#ABDDE9"/>
<path d="M-4.27615 212.291L100.691 326.786L102.195 325.408L-2.7727 210.913L-4.27615 212.291Z" fill="#ABDDE9"/>
<path d="M-11.7147 219.102L93.2526 333.598L94.756 332.219L-10.2113 217.724L-11.7147 219.102Z" fill="#ABDDE9"/>
<path d="M-19.1682 225.937L85.7991 340.432L87.3025 339.054L-17.6648 224.559L-19.1682 225.937Z" fill="#ABDDE9"/>
<path d="M-77.2451 321.071L53.1667 504.726L319.891 315.35L230.748 129.217C225.727 118.756 212.512 115.316 203.053 122.028L-77.2451 321.071Z" fill="#37A5B7"/>
<path d="M270.621 340.738L194.93 195.322L158.152 216.951L238.963 360.517L270.621 340.738Z" fill="#198293"/>
</g>
</svg>

<svg xmlns="http://www.w3.org/2000/svg" fill="none" aria-hidden="true" viewBox="0 0 271 276"><mask id="blue-mask" width="271" height="276" x="0" y="0" maskUnits="userSpaceOnUse" style="mask-type:alpha"><path d="M0 10C0 4.477 4.477 0 10 0h251c5.523 0 10 4.477 10 10v256c0 5.523-4.477 10-10 10H10c-5.523 0-10-4.477-10-10V10Z" class="cls-1"/></mask><g mask="url(#blue-mask)"><path d="m-101.813 286.459 64.757 91.225L244.13 178.041l-54.769-77.11c-5.533-7.78-16.342-9.63-24.122-4.098L-101.813 286.46Z" class="cls-2"/><path d="M-105.586 269.844 42.541 407.002l192.848-208.271L87.262 61.572l-192.848 208.272Z" class="cls-1"/><path d="m109.154 120.319-1.386 1.496 66.155 61.257 1.386-1.496-66.155-61.257ZM98.715 103.679l-1.385 1.496 93.944 86.987 1.385-1.496-93.944-86.987ZM70.784 113.774l-1.386 1.497 113.966 105.526 1.386-1.496L70.784 113.774ZM64.162 120.9l-1.386 1.496 113.966 105.527 1.386-1.496L64.162 120.9ZM50.945 135.212l-1.386 1.497 113.966 105.527 1.386-1.497L50.945 135.212ZM44.324 142.333l-1.386 1.496 113.966 105.527 1.386-1.497L44.324 142.333ZM37.73 149.479l-1.386 1.497 113.965 105.527 1.386-1.497L37.729 149.479ZM8.629 180.91l-1.386 1.496L121.21 287.933l1.386-1.496L8.629 180.91ZM1.756 188.295l-1.385 1.497 113.966 105.526 1.385-1.496L1.756 188.295ZM-5.088 195.717l-1.386 1.496L107.492 302.74l1.386-1.496L-5.088 195.717ZM-11.936 203.129l-1.386 1.496 113.966 105.527 1.386-1.496-113.966-105.527ZM-18.81 210.517l-1.386 1.496L93.77 317.54l1.386-1.497L-18.81 210.517ZM-25.658 217.922l-1.385 1.497L86.923 324.946l1.385-1.497-113.966-105.527ZM-32.504 225.338l-1.386 1.497L80.076 332.362l1.386-1.497-113.966-105.527Z" class="cls-3"/><path d="M-94.192 262.975 42.238 411.79l209.239-191.826L115.046 71.148-94.192 262.975Z" class="cls-4"/><path d="m130.597 132.835 60.932 66.463 1.504-1.378-60.932-66.463-1.504 1.378ZM121.599 115.421l86.526 94.38 1.503-1.378-86.526-94.38-1.503 1.378ZM92.945 123.181l104.967 114.496 1.503-1.379L94.448 121.803l-1.503 1.378ZM85.765 129.741l104.967 114.496 1.504-1.379L87.268 128.363l-1.503 1.378ZM71.403 142.912l104.968 114.495 1.503-1.378L72.907 141.534l-1.504 1.378ZM64.252 149.494 169.219 263.99l1.503-1.379L65.755 148.116l-1.503 1.378ZM57.048 156.077l104.968 114.495 1.503-1.378L58.552 154.699l-1.504 1.378ZM25.5 185.003l104.967 114.495 1.503-1.378L27.003 183.625l-1.503 1.378ZM18.045 191.836l104.967 114.495 1.504-1.378L19.548 190.458l-1.503 1.378ZM10.614 198.646l104.967 114.495 1.504-1.378L12.117 197.268l-1.503 1.378ZM3.179 205.46l104.967 114.495 1.503-1.378L4.682 204.081l-1.503 1.379ZM-4.276 212.291 100.69 326.786l1.504-1.378L-2.773 210.913l-1.503 1.378ZM-11.715 219.102 93.253 333.598l1.503-1.379-104.967-114.495-1.504 1.378ZM-19.168 225.937 85.799 340.432l1.503-1.378-104.967-114.495-1.503 1.378Z" class="cls-1"/><path d="M-77.245 321.071 53.167 504.726 319.89 315.35l-89.143-186.133c-5.021-10.461-18.236-13.901-27.695-7.189L-77.245 321.071Z" class="cls-5"/><path d="M270.621 340.738 194.93 195.322l-36.778 21.629 80.811 143.566 31.658-19.779Z" class="cls-2"/></g></svg>
